X: 1
T: Bold Doherty
M: 6/8
L: 1/8
R: jig
K: Emin
EFG AGA|BGE GAB|cec BdB|AGE EDB,|
EFG Adc|BGE GAB|~c3 BdB|1 AGE E2D:|2 AGE E2c||
B2e edB|dBA G2A|Bee edB|dBG Adc|
B2e edB|dBA GAB|~c3 BGB|AGE E2c|
B2e edB|dBA G2A|Bee edB|dBG ABd|
~g3 ege|dBA GAB|cec BdB|AGE EDB,||
